X:1
T:Hope of my heart - Ward
T:James Gibb editions
T:#
%%score { 1 | 2 } 3 4 5
L:1/8
M:4/4
K:Bb
V:1 treble nm="Soprano I" snm="S"
V:2 treble 
V:3 treble nm="Alto" snm="A"
V:4 treble-8 nm="Tenor" snm="T"
V:5 bass nm="Bass" snm="B"
V:1
 z4 d4- | d4 c4- |"^Hope of my heart" c2 B2 A4 | G8 | A6 (Bc) |"^John Ward\n(1571-1638)" d8 | d8 | %7
w: Hope|* of|* my heart,|hope|of my *|heart,|Oh,|
[M:4/4] c3 c c3 B | A4 z4 | d8 | f8 | f3 f f2 (=ed) | ^c4 z2 =e2- | e=e d2 ^c2 (=Bc) |[K:G] d8 | %15
w: where- fore do the|words,|oh,|oh,|where- fore do the *|words? Which|* your sweet tongue af\- *|fords,|
 z2 d3 d c2 | B6 A2 | G4 z4 | z2 g3 g =f2 | e6 e2 | d6 d2 | d4 c4 | B8 | z4 c4 | B4 (A4- | %25
w: which your sweet|tongue af-|fords,|which your sweet|tongue af-|fords, No|hope im-|part,|no|hope im\-|
 A4 ^G4) | A4 e4 | e8 | z8 | z4 A4- | A4 G4- | G2 ^G2 A2 B2 | c8 | B6 G2 | B8 | A4 G2 F2 | %36
w: |part, im-|part?||But|* cru\-|* el with- out|mea-|sure, but|cru-|el with- out|
 (E2 F2 G2 A2) | B4 B4- | B4 A2 G2 | (A8- | A4 G4) | F8 | ^G4 !courtesy!=g4- | g4 f2 e2 | f8- | %45
w: mea\- * * *|sure, To|* my e-|ter\-||nal|pain, to|* my e-|ter\-|
 f4 e4 | ^d4 e4 | e4 ^d4 | e8 | c8 | B2 A2 (d4- | d2 B2 c2 d2) | e8 | e8 | z8 | z2 A2 (d>e d>c | %56
w: * nal|pain, e-|ter- nal|pain,|to|my e- ter\-||nal|pain.||Still thun\- * * *|
 B>c B>)A G4 | A8 | B4 z4 | z2 G2 (c>d c>)B | (A2 G4) F2 | G2 d2 g>a g>=f | (e>=f e>d c>d c>)B | %63
w: * * * der forth|dis-|dain,|still thun\- * * der|forth * dis-|dain, still thun\- * * *|* * * * * * * der|
 (A2 G4) F2 | G8 | z8 | z8 | z2 B2 B2 B2 | B8 | z2 A2 A2 A2 | c8 | z2 c2 c2 c2 | =f8 | %73
w: forth * dis-|dain|||On him whose|life,|on him whose|life,|on him whose|life,|
 z2 d2 d2 d2 | g6 =f2 | e2 d2 c2 d2 | e4 A4 | =f4 f2 e2 | d4 c4 | %79
w: on him whose|life de-|pends up- on your|plea- sure,|up- on your|plea- sure,|
[Q:1/4=120][Q:1/4=120][Q:1/4=120][Q:1/4=120] d4 g4- | g2 =f2 e2[Q:1/4=119] d2 |[Q:1/4=115] c8- | %82
w: whose life|* de- pends up-|on|
[Q:1/4=111] c4[Q:1/4=108] B4 |[Q:1/4=104] A8 |[Q:1/4=102] B8 |] %85
w: * your|plea-|sure.|
V:2
 z4 B4- | B4 A4- | A2 G2 ^F4 | z4 d4- | d4 c4- | c2 B2 A4 | B8 |[M:4/4] A3 A A2 (GF) | =E4 z4 | %9
w: Hope|* of|* my heart,|hope|* of|* my heart,|Oh,|where- fore do the *|words,|
 A8 | d8 | c3 c c2 B2 | A8 | z8 |[K:G] z2 d3 d c2 | B6 A2 | G8 | z2 g3 g =f2 | e3 e d2 d2- | %19
w: oh,|oh,|where- fore do the|words?||Which your sweet|tongue af-|fords,|which your sweet|tongue af- fords, which|
 dd c2 c2 (BA) | B8 | z8 | z4 B4 | A4 G4- | G4 F2 d2 | c4 B4 | A4 A4- | A4 G4- | G2 G2 A2 B2 | c8 | %30
w: * your sweet tongue af\- *|fords,||No|hope im\-|* part, no|hope im-|part? But|* cru\-|* el with- out|mea-|
 B8 | e6 d2 | c2 B2 A4 | G8 | z8 | z4 B2 B2 | e8 | ^d8 | z8 | z8 | z8 | z8 | z8 | B8- | B4 A2 G2 | %45
w: sure,|cru- el|with- out mea-|sure,||with- out|mea-|sure,||||||To|* my e-|
 (A8- | A4 G4) | F8 | ^G4 e4- | e4 d2 c2 | (d8- | d4 c4) | B8 | ^c4 A4 | (e>f e>d ^c>d c>)B | %55
w: ter\-||nal|pain, to|* my e-|ter\-||nal|pain, Still|thun\- * * * * * * der|
 (A4 B3) c | d4 z2 G2 | (c>d c>)B A3 A | (d>e d>c B>c B>)A | G3 G A4 | z2 B2 (d>e d>c | %61
w: forth * dis-|dain, still|thun\- * * der forth, still|thun\- * * * * * * der|forth dis- dain,|still thun\- * * *|
 B>c B>)A G2 G2 | (g>a g>=f e>f e>)e | d6 d2 | d8 | z8 | z8 | z2 G2 G2 G2 | ^G8 | z2 c2 c2 c2 | %70
w: * * * der forth, still|thun\- * * * * * * der|forth dis-|dain,|||On him whose|life,|on him whose|
 e8 | z2 A2 A2 A2 | c8 | z4 z2 d2 | d2 d2 g4- | g2 =f2 e2 d2 | c6 B2 | A8 | B2 G2 G2 G2 | g6 =f2 | %80
w: life,|on him whose|life,|on|him whose life|* de- pends up-|on your|plea-|sure, on him whose|life de-|
 e2 d2 c2 d2 | (e8 | d8- | d8) | d8 |] %85
w: pends up- on your|plea\-|||sure.|
V:3
 G8 | F6 E2 | D8 | D8 | F6 G2 | A8 | D8 |[M:4/4] F3 F F2 (=ED) | ^C4 z4 | D8 | B8 | A3 A A2 (GF) | %12
w: Hope|of my|heart,|hope|of my|heart,|Oh,|where- fore do the *|words,|oh,|oh,|where- fore do the *|
 =E8 | z2 A3 A G2 |[K:G] F6 (EF) | G4 D4 | D8 | z4 z2 A2- | AA G2 G2 D2 | E6 G2 | G4 G4 | F4 (E4- | %22
w: words?|Which your sweet|tongue af\- *|fords, af-|fords,|which|* your sweet tongue af-|fords, af-|fords, No|hope im\-|
 E4 ^D4) | E8 | z4 A,4 | E4 E4 | E8 | z8 | z8 | z8 | z8 | z8 | z8 | z4 E4- | E4 D4- | %35
w: |part,|no|hope im-|part?|||||||But|* cru\-|
 D2 ^D2 E2 F2 | G8 | F8 | E8- | E4 ^D2 ^C2 | (^D4 E4- | E4) ^D4 | E8 | E8 | D8 | A,8 | B,8 | z8 | %48
w: * el with- out|mea-|sure,|To|* my e-|ter\- *|* nal|pain,|e-|ter-|nal|pain,||
 z8 | A8- | A4 ^G2 F2 | (^G4 A4- | A4) ^G4 | A8 | z2 E2 (A>B A>G | F>G F>)E D2 D2 | %56
w: |to|* my e-|ter\- *|* nal|pain,|Still thun\- * * *|* * * der forth, still|
 (G>A G>=F E>F E>)D | C4 D4 | D2 D2 (G>A G>=F | E>=F E>)D C2 C2 | D4 D4 | G,8 | z8 | %63
w: thun\- * * * * * * der|forth dis-|dain, still thun\- * * *|* * * der forth dis-|dain, dis-|dain,||
 z2 G,2 (D>E D>C | B,>C B,>)A, G,2 G,2 | (C>D C>B, A,>B, A,>)G, | =F,2 (=F4 E2) | D2 D2 D2 D2 | %68
w: still thun\- * * *|* * * der forth, still|thun\- * * * * * * der|forth dis\- *|dain, On him whose|
 E4 z2 E2 | E2 E2 A4- | A4 z2 C2 | C2 C2 =F4- | F4 z2 =F2 | =F2 F2 _B4 | z2 D2 D2 D2 | E2 G2 c4- | %76
w: life, on|him whose life,|* on|him whose life,|* on|him whose life,|on him whose|life, whose life|
 c2 B2 A2 G2 | =F8- | F4 E4 | D8 | E4 G4 | c6 B2 | A2 A2 G4- | G2 G2 F4 | G8 |] %85
w: * de- pends up-|on|* your|plea-|sure, whose|life de-|pends up- on|* your plea-|sure.|
V:4
 z8 | z8 | z8 | B8 | A6 G2 | ^F8 | !courtesy!=F8 |[M:4/4][K:treble-8] F3 F F2 G2 | A4 z4 | A8 | %10
w: |||Hope|of my|heart,|Oh,|Where- fore do the|words,|oh,|
 B8 | c3 c A2 d2 | A2 ^c3 c =B2 | A2 ^F2 G4 |[K:G] d8 | G8- | G4 z2 d2- | dd c2 B2 (AB) | c4 G4 | %19
w: oh,|where- fore do the|words? Which your sweet|tongue af- fords,|af-|fords,|* which|* your sweet tongue af\- *|fords, sweet|
 G4 c4 | d8 | z4 a4 | g4 f4 | e4 e4 | d6 f2 | e6 d2 | ^c6 =c2 | e8 | d4 c2 B2 | (A2 B2 c2 d2) | %30
w: tongue af-|fords,|No|hope im-|part, no|hope im-|part, im-|part? But|cru-|el with- out|mea\- * * *|
 e4 e2 d2 | (c6 B2 | A8) | B8 | z8 | z4 B3 A | G2 F2 E4 | B8 | c8- | c4 B2 A2 | B8- | B4 B4 | B8 | %43
w: sure, with- out|mea\- *||sure,||cru- el|with- out mea-|sure,|To|* my e-|ter\-|* nal|pain,|
 z8 | z8 | z8 | z8 | z4 B4- | B4 A2 G2 | A8- | A4 B4 | B4 A4 | e6 e2 | A8- | A4 A4 | %55
w: ||||to|* my e-|ter\-|* nal|pain, e-|ter- nal|pain.|* Still|
 (d>e d>c B>c B>)A | G3 G (c>d c>B | A>B A>)G F2 F2 | G8 | z8 | z4 z2 d2 | (g>a g>=f e>f e>)d | %62
w: thun\- * * * * * * der|forth, still thun\- * * *|* * * der forth dis-|dain,||still|thun\- * * * * * * der|
 c8 | d8 | d2 d2 (g>a g>=f | e>=f e>)d c2 c2 | (=f>g f>)e d2 c2 | B8 | z2 B2 B2 B2 | c8 | %70
w: forth|dis-|dain, still thun\- * * *|* * * der forth, still|thun\- * * der forth dis-|dain,|On him whose|life,|
 z2 c2 c2 c2 | A4 z2 =F2 | =F2 F2 A4 | z2 d2 d2 d2 | G2 B2 B2 B2 | c8 | c4 =f4- | f2 e2 d2 c2 | %78
w: on him whose|life, on|him whose life,|on him whose|life, on him whose|life,|whose life|* de- pends up-|
 B4 c4 | (c4 B4) | c2 G2 c4- | c2 B2 A2 G2 | F4 G4 | A8 | G8 |] %85
w: on your|plea\- *|sure, whose life|* de- pends up-|on your|plea-|sure.|
V:5
 z8 | z8 | z8 | G,8 | F,6 E,2 | D,8 | B,,8 |[M:4/4] z8 | z8 | D,8 | B,,8 | F,3 F, F,2 G,2 | %12
w: |||Hope|of my|heart,|Oh,|||Oh,|oh,|where- fore do the|
 A,2 A,3 A, G,2 | ^F,4 =E,4 |[K:G] D,8 | z8 | z2 G,3 G, =F,2 | E,4 D,4 | C,4 B,,3 B,, | C,6 C,2 | %20
w: words? Which your sweet|tongue af-|fords,||which your sweet|tongue af-|fords, your sweet|tongue af-|
 G,,6 G,,2 | A,,8 | B,,8 | C,6 C,2 | D,8 | E,8 | A,,6 A,2 | C8 | B,4 A,2 ^G,2 | A,8 | E,8 | z8 | %32
w: fords, No|hope|im-|part, no|hope|im-|part? But|cru-|el with- out|mea-|sure,||
 z8 | E,8 | G,8 | F,4 E,2 ^D,2 | E,8 | B,,8 | z8 | z8 | z8 | z8 | E,8- | E,4 D,2 C,2 | (D,8- | %45
w: |but|cru-|el with- out|mea-|sure,|||||To|* my e-|ter\-|
 D,4 C,4) | B,,8- | B,,8 | E,8 | =F,8- | F,4 E,2 D,2 | E,8- | E,4 E,4 | A,,8- | A,,8 | z8 | z8 | %57
w: |nal||pain,|to|* my e-|ter\-|* nal|pain.||||
 z2 A,,2 (D,>E, D,>C, | B,,>C, B,,>)A,, G,,2 G,2 | (C>D C>B, A,>B, A,>)G, | F,2 G,2 D,4 | z8 | z8 | %63
w: Still thun\- * * *|* * * der forth, still|thun\- * * * * * * der|forth dis- dain,|||
 z4 D,4 | (G,>A, G,>=F, E,>F, E,>)D, | C,2 C,2 (=F,>G, F,>E, | D,>E, D,>)C, B,,2 C,2 | G,8 | %68
w: still|thun\- * * * * * * der|forth, still thun\- * * *|* * * der forth dis-|dain,|
 z2 E,2 E,2 E,2 | A,8 | z2 A,2 A,2 A,2 | =F,8 | z2 =F,2 F,2 F,2 | _B,8 | z2 G,2 G,2 G,2 | C6 B,2 | %76
w: On him whose|life,|on him whose|life,|on him whose|life,|on him whose|life de-|
 A,2 G,2 =F,4- | F,4 =F,4 | G,8- | G,8 | C,8- | C,4 C,4 | D,8- | D,8 | G,,8 |] %85
w: pends up- on|* your|plea\-||sure,|* your|plea\-||sure.|

